X: 1
T: Dancing Sara
M: 4/4
L: 1/8
R: reel
K: Amix
|:e2AA eAce|fedf g2fg|eAAA eAce|fedc Bdcd|
 e2AA eAce|fedf g2fg|eedB GGGB|dGBc dBcd:|
c3A EAcA|BBBG DGBd|cAAA eAce|aaaf gfed|
 cAAA eAcA|BGGG DGBd|cAAA EAcA|1 BAGB d4:|2 BAGB A4||
|:aaaf gfed|cdeg fedf|e2af gfed|=cdef g4|
a3f gfed|cdeg fede|=cdef ggge|1 dedB G2z2:|2 dedB G2zG||
|:AecA B2GB|AAAF GFED|AecA B2GB|AGFD E2zE|
AecA B2GB|AAAF GFED|EEGE FFAF|1 GGBG BBAG:|2 GGBG ABcd||
